X:1
T:Song of India
C:Nikolai Rimsky-Korsakov
S:Sadko (1897)
M:3/4
L:1/4
Q:1/4=76
K:D
% A section – melody only (Chanson Indoue)
A |"D"d3/2 c/ B | A3/2 F/ G | A2 A |"D"d3/2 c/ B |"A7"A3/2 =c/ A |"D"d3 |\
"D"d3/2 c/ B |"A"A3/2 F/ G |"Em"E3/2 D/ E |"D"D3 |]
